!!!Melodie: eigene
!!!Typ: Lied
**kern	**silbe	**silbe	**silbe	**silbe	**silbe
*clefG2	*lang:DE	*lang:DE	*lang:DE	*lang:DE	*lang:DE
*k[b-,e-,a-]	*	*	*	*	*
*M3/2	*	*	*	*	*
2g	Die	Dem	Die	Noch	Gott
=	=	=	=	=	=
2cc	Nacht	al#	Nacht	man#	will
2cc	ist	#le	ist	#che	im
4b-	vor#	En#	schon	Nacht	Dun#
4g	#ge#	#gel	im	wird	#kel
=	=	=	=	=	=
2a-	#drun#	die#	Schwin#	fal#	woh#
2g	#gen,	#nen,	#den,	#len	#nen
2f	der	wird	macht	auf	und
=	=	=	=	=	=
4g	Tag	nun	euch	Men#	hat
4d	ist	ein	zum	#schen#	es
(4c	nicht	Kind	Stal#	#leid	doch
4d)	|	|	|	|	|
2e-	mehr	und	#le	und	er#
=	=	=	=	=	=
1f	fern.	Knecht.	auf!	-schuld.	#hellt.
2g	So	Gott	Ihr	Doch	Als
=	=	=	=	=	=
2cc	sei	sel#	sollt	wan#	woll#
2cc	nun	#ber	das	#dert	#te
4b-	Lob	ist	Heil	nun	er
4g	ge#	er#	dort	mit	be#
=	=	=	=	=	=
2a-	#sun#	#schie#	fin#	al#	#loh#
2g	#gen	#nen	#den,	#len	#nen,
2f	dem	zur	das	der	so
=	=	=	=	=	=
4g	hel#	Süh#	al#	Stern	rich#
4e-	#len	#ne	#ler	der	#tet
(4c	Mor#	für	Zei#	Got#	er
4d)	|	|	|	|	|
2e-	#gen#	sein	#ten	#tes#	die
=	=	=	=	=	=
2f	#stern!	Recht.	Lauf	#huld.	Welt.
4r	%	%	%	%	%
4f	Auch	Wer	von	Be#	Der
=	=	=	=	=	=
4f	wer	schul#	An#	#glänzt	sich
4g	zur	#dig	#fang	von	den
2a-	Nacht	ist	an	sei#	Erd#
2g	ge#	auf	ver#	#nem	#kreis
=	=	=	=	=	=
2f	#wei#	Er#	#kün#	Lich#	bau#
4f	#net,	#den,	#den,	#te,	#te,
4cc	der	ver#	seit	hält	der
=	=	=	=	=	=
4dd	stim#	#hüll	eu#	euch	lässt
4ee-	#me	nicht	#re	kein	den
2dd	froh	mehr	Schuld	Dun#	Sün#
(4cc	mit	sein	ge#	#kel	#der
4b-)	|	|	|	|	|
=	=	=	=	=	=
1cc	ein.	Haupt.	#schah.	mehr,	nicht.
2g	Der	Er	Nun	von	Wer
=	=	=	=	=	=
2cc	Mor#	soll	hat	Got#	hier
2b-	#gen#	er#	sich	#tes	dem
4a-	#stern	#ret#	euch	An#	Sohn
4g	be#	#tet	ver#	#ge#	ver#
=	=	=	=	=	=
(4f	#schei#	wer#	#bün#	#sich#	#trau#
4e-)	|	|	|	|	|
4f	#net	#den,	#det,	#te	#te,
4g	auch	wenn	den	kam	kommt
=	=	=	=	=	=
2e-	dei#	er	Gott	euch	dort
2c	#ne	dem	selbst	die	aus
4f	Angst	Kin#	aus#	Ret#	dem
4f	und	#de	#er#	#tung	Ge#
=	=	=	=	=	=
1g	Pein.	glaubt.	#sah.	her.	#richt.
==	==	==	==	==	==
*-	*-	*-	*-	*-	*-
